app/assets/images/payment_icons/fintoc.svg

<svg width="38" height="24" viewBox="0 0 38 24" fill="none" xmlns="http://www.w3.org/2000/svg" role="img" aria-labelledby="pi-fintoc"><title id="pi-fintoc">Fintoc</title>
<g clip-path="url(#clip0_2806_29870)">
<path d="M36 0H2C0.89543 0 0 0.89543 0 2V22C0 23.1046 0.89543 24 2 24H36C37.1046 24 38 23.1046 38 22V2C38 0.89543 37.1046 0 36 0Z" fill="black" fill-opacity="0.07"/>
<path d="M35 1H3C2.46957 1 1.96086 1.21071 1.58579 1.58579C1.21071 1.96086 1 2.46957 1 3V21C1 21.5304 1.21071 22.0391 1.58579 22.4142C1.96086 22.7893 2.46957 23 3 23H35C35.5304 23 36.0391 22.7893 36.4142 22.4142C36.7893 22.0391 37 21.5304 37 21V3C37 2.46957 36.7893 1.96086 36.4142 1.58579C36.0391 1.21071 35.5304 1 35 1Z" fill="black"/>
<path d="M4.67064 14.8766H5.16424C5.36594 14.8766 5.5297 14.7131 5.5297 14.5117V10.4352C5.5297 10.2338 5.36594 10.0703 5.16424 10.0703H4.67064C4.46894 10.0703 4.30518 10.2338 4.30518 10.4352V14.5117C4.30518 14.7131 4.46894 14.8766 4.67064 14.8766Z" fill="white"/>
<path d="M3.55111 14.8747H3.55157C3.68666 14.8747 3.79583 14.7657 3.79583 14.6308V10.3123C3.79583 10.1774 3.68666 10.0684 3.55157 10.0684H3.55111C3.41603 10.0684 3.30685 10.1774 3.30685 10.3123V14.6308C3.30685 14.7657 3.41603 14.8747 3.55111 14.8747Z" fill="white"/>
<path d="M2.69212 14.8747C2.75041 14.8747 2.79806 14.8276 2.79806 14.7689V10.1741C2.79806 10.1159 2.75041 10.0684 2.69212 10.0684C2.63383 10.0684 2.58618 10.1159 2.58618 10.1741V14.7689C2.58618 14.8271 2.63383 14.8747 2.69212 14.8747Z" fill="white"/>
<path d="M7.51908 10.0684H6.63457C6.30565 10.0684 6.03873 10.3349 6.03873 10.6633V14.2797C6.03873 14.6081 6.30565 14.8747 6.63457 14.8747H7.51908C7.84799 14.8747 8.11492 14.6081 8.11492 14.2797V10.6633C8.11492 10.3349 7.84799 10.0684 7.51908 10.0684Z" fill="white"/>
<path d="M12.1636 9.62458C12.1636 9.26059 12.3695 9.07397 12.7248 9.07397C12.9584 9.07397 13.1268 9.09245 13.3419 9.12986V8.09331C13.0893 8.03742 12.7715 8 12.4819 8C11.5285 8 10.9299 8.5229 10.9299 9.54051V9.68048C10.9299 9.93269 10.7989 10.0726 10.5464 10.0726H10.1911V11.2118H10.9299V14.8803H12.1641V11.2118H13.4261V10.0726H12.1641V9.62458H12.1636Z" fill="white"/>
<path d="M14.8973 8.0625C15.309 8.0625 15.6347 8.38723 15.6347 8.77663C15.6347 9.16603 15.309 9.49077 14.8973 9.49077C14.4856 9.49077 14.1696 9.17527 14.1696 8.77663C14.1696 8.37799 14.4856 8.0625 14.8973 8.0625Z" fill="white"/>
<path d="M15.5148 10.0742H14.2898V14.8819H15.5148V10.0742Z" fill="white"/>
<path d="M19.0264 9.96875C18.3316 9.96875 17.8546 10.2986 17.615 10.669V10.0713H16.39V14.879H17.615V12.398C17.6178 11.6645 18.0281 11.154 18.6341 11.154C19.2402 11.154 19.6065 11.5273 19.6065 12.349V14.879H20.8315V12.0784C20.8315 10.5568 20.0183 9.96875 19.0269 9.96875H19.0264Z" fill="white"/>
<path d="M23.313 13.1445V11.2123H24.575V10.0732H23.313V8.72852H22.2194L22.1653 9.72073C22.1607 9.91566 22.0288 10.0732 21.8234 10.0732H21.2937V11.2123H22.0792V13.2475C22.0792 14.4143 22.7806 14.9746 23.734 14.9746C24.1175 14.9746 24.3696 14.9372 24.6689 14.8721V13.7145C24.4163 13.7704 24.2577 13.7893 23.9584 13.7893C23.5846 13.7893 23.3135 13.6212 23.3135 13.1454V13.1445H23.313Z" fill="white"/>
<path d="M27.6837 9.96875C26.2348 9.96875 25.1315 11.0423 25.1315 12.4705C25.1315 13.8988 26.2348 14.9815 27.6837 14.9815C29.1326 14.9815 30.2549 13.908 30.2549 12.4705C30.2549 11.033 29.133 9.96875 27.6837 9.96875ZM27.6837 13.7962C26.9171 13.7962 26.3652 13.2082 26.3652 12.4705C26.3652 11.7328 26.9167 11.154 27.6837 11.154C28.4507 11.154 29.0206 11.7421 29.0206 12.4705C29.0206 13.199 28.4502 13.7962 27.6837 13.7962Z" fill="white"/>
<path d="M33.2787 13.8138C32.5029 13.8138 31.951 13.2258 31.951 12.4881C31.951 11.7504 32.5024 11.1716 33.2787 11.1716C33.7649 11.1716 34.1109 11.3957 34.3353 11.7597L35.3919 11.1157C34.9431 10.4155 34.2043 9.98633 33.2791 9.98633C31.7928 9.98633 30.7177 11.0598 30.7177 12.4881C30.7177 13.9164 31.7928 14.9991 33.2791 14.9991C34.2048 14.9991 34.9431 14.5695 35.3919 13.8697L34.3353 13.2258C34.1109 13.5898 33.7649 13.8138 33.2787 13.8138Z" fill="white"/>
</g>
<defs>
<clipPath id="clip0_2806_29870">
<rect width="38" height="24" fill="white"/>
</clipPath>
</defs>
</svg>

<svg width="38" height="24" viewBox="0 0 38 24" fill="none" xmlns="http://www.w3.org/2000/svg" role="img" aria-labelledby="pi-fintoc"><title id="pi-fintoc">Fintoc</title>
<g clip-path="url(#a)">
<path fill="#000" fill-opacity=".07" d="M36 0H2a2 2 0 0 0-2 2v20a2 2 0 0 0 2 2h34a2 2 0 0 0 2-2V2a2 2 0 0 0-2-2Z"/><path fill="#000" d="M35 1H3a2 2 0 0 0-2 2v18a2 2 0 0 0 2 2h32a2 2 0 0 0 2-2V3a2 2 0 0 0-2-2Z"/><path fill="#fff" d="M4.67 14.877h.494a.365.365 0 0 0 .366-.365v-4.077a.365.365 0 0 0-.366-.365h-.493a.365.365 0 0 0-.366.365v4.077c0 .201.164.365.366.365ZM3.551 14.875a.244.244 0 0 0 .245-.244v-4.319a.244.244 0 1 0-.489 0v4.319c0 .135.109.244.244.244ZM2.692 14.875a.106.106 0 0 0 .106-.106v-4.595a.106.106 0 0 0-.212 0v4.595c0 .058.048.106.106.106ZM7.52 10.068h-.885a.596.596 0 0 0-.596.595v3.617c0 .328.267.595.596.595h.884a.596.596 0 0 0 .596-.595v-3.617a.596.596 0 0 0-.596-.595ZM12.164 9.625c0-.364.206-.551.56-.551.234 0 .403.018.618.056V8.093a4.197 4.197 0 0 0-.86-.093c-.954 0-1.552.523-1.552 1.54v.14c0 .253-.131.393-.384.393h-.355v1.139h.739v3.668h1.234v-3.668h1.262v-1.14h-1.262v-.447ZM14.897 8.063c.412 0 .738.324.738.714 0 .389-.326.714-.738.714a.712.712 0 0 1-.727-.714c0-.399.316-.714.727-.714ZM15.515 10.074H14.29v4.808h1.225v-4.808ZM19.026 9.969c-.694 0-1.171.33-1.411.7v-.598H16.39v4.808h1.225v-2.481c.003-.733.413-1.244 1.02-1.244.605 0 .971.373.971 1.195v2.53h1.225v-2.8c0-1.522-.813-2.11-1.804-2.11ZM23.313 13.145v-1.933h1.262v-1.139h-1.262V8.73h-1.094l-.054.992c-.004.195-.136.352-.342.352h-.53v1.14h.786v2.035c0 1.166.702 1.727 1.655 1.727.383 0 .636-.038.935-.103v-1.158a2.82 2.82 0 0 1-.71.075c-.374 0-.645-.168-.645-.644h-.001ZM27.684 9.969c-1.45 0-2.553 1.073-2.553 2.502 0 1.428 1.104 2.51 2.553 2.51 1.449 0 2.57-1.073 2.57-2.51 0-1.438-1.121-2.502-2.57-2.502Zm0 3.827c-.767 0-1.319-.588-1.319-1.325 0-.738.552-1.317 1.319-1.317.767 0 1.337.588 1.337 1.316 0 .729-.57 1.326-1.337 1.326ZM33.279 13.814c-.776 0-1.328-.588-1.328-1.326 0-.738.551-1.316 1.328-1.316.486 0 .832.224 1.056.588l1.057-.644c-.449-.7-1.188-1.13-2.113-1.13-1.486 0-2.561 1.074-2.561 2.502 0 1.428 1.075 2.511 2.561 2.511.926 0 1.664-.43 2.113-1.13l-1.057-.643c-.224.364-.57.588-1.056.588Z"/></g><defs><clipPath id="a"><path fill="#fff" d="M0 0h38v24H0z"/></clipPath></defs>
</svg>
